X: 339
T: Ping diao
%%abc-version 2.0
%%abcx-abcm2ps-target-version 5.9.1 (29 Sep 2008)
%%abc-creator hum2abc beta
%%abcx-conversion-date 2013/10/02 07:52:30
%%abc-edited-by Helmut Schaffrath
%%humdrum-veritas 1853290664
%%humdrum-veritas-data 3197901804
%%continueall 1
%%barnumbers 0
L: 1/8
M: 4/4
K: C
G2G2B c d g [I:setbarnb 1]| 
g g/ e/ d c d g d A | 
A G G E G> A c c | 
c> G E DC4 | 
G> G G C DG2c | 
G> E D C D ED2 | 
GG2A c B A c | 
d> g d AG4 |]  



